X:0
T:Dorian/Minor/Phrygian (2,7-gap, re/la/mi) Pentatonic Scales
M:6/8
L:1/8
K:BbDor
"^B flat"  Bde fab|baf edB||\
K:FDor
"^F"       FAB cef|fec BAF||
K:CDor
"^C"       CEF GBc|cBG FEC||\
K:GDor
"^G"       GBc dfg|gfd cBG||
K:DDor
"^D"       DFG Acd|dcA GFD||\
K:AMin
"^A"       Acd ega|age dcA||\
K:EPhr
"^E"       EGA Bde|edB AGE||
K:BPhr
"^B"       Bde fab|baf edB||\
K:F#Phr
"^F sharp" FAB cef|fec BAF||
K:C#Phr
"^C sharp" CEF GBc|cBG FEC||\
K:G#Phr
"^G sharp" GBc dfg|gfd cBG|]


3.4. The Lydian/Major/Mixolydian Pentatonic Mode
==== ===========================================

The LYDIAN/MAJOR/MIXOLYDIAN pentatonic scale (with gaps at the 4th and 7th)
occurs frequently in pipe music.  Its interval sequence is TTmTm; in A it's
AB^ce^fa.  That's its usual form on the pipe chanter: A-mode in the DG-gap
pitch set.  It can also be D-mode in the GC-gap set.  In sol-fa it can begin
on so, do or la.

